public/img/common/logo.svg

<svg fill="none" height="80" viewBox="0 0 200 80" width="200" xmlns="http://www.w3.org/2000/svg"><g fill="#fff"><path d="m110.154 27.6933c1.367 1.2983 2.433 2.8799 3.124 4.634.691 1.754.99 3.6381.876 5.5199v22.7692h-5.846v-20.9231c.282-2.8402-.484-5.6856-2.154-8-.859-.8195-1.873-1.4594-2.983-1.8821-1.109-.4227-2.292-.6197-3.4785-.5794-1.8224-.067-3.6293.3582-5.2307 1.2307-1.7791.9081-3.2706 2.293-4.3077 4-1.047 2.2104-1.5733 4.6314-1.5385 7.077v19.0769h-5.5385v-34.4616l5.2308 2.1539v2.1538c1.0669-2.0547 2.8039-3.6831 4.9231-4.6153 2.2233-1.0084 4.6356-1.5328 7.077-1.5385 3.584-.1044 7.084 1.0986 9.846 3.3846z"/><path d="m154.462 44.9225h-26.769c.03 1.5612.372 3.1006 1.006 4.5274.634 1.4269 1.547 2.7122 2.686 3.7803 1.041 1.0487 2.292 1.865 3.671 2.3954 1.379.5303 2.854.7626 4.329.6815 2.207-.0508 4.391-.4667 6.462-1.2307 1.598-.8512 2.81-2.2828 3.385-4l4.923 2.4615c-1.465 2.3795-3.467 4.3819-5.847 5.8461-2.773 1.3513-5.841 1.986-8.923 1.8462-2.332.131-4.666-.2408-6.843-1.0902-2.176-.8493-4.145-2.1565-5.772-3.8329-1.631-1.8362-2.88-3.9793-3.672-6.3041-.793-2.3247-1.113-4.7841-.943-7.2343-.241-4.8843 1.288-9.6915 4.307-13.5385 1.602-1.7105 3.567-3.0405 5.75-3.8924s4.529-1.2041 6.866-1.0307c2.923-.1392 5.82.6118 8.307 2.1539 2.444 1.4226 4.381 3.5745 5.539 6.1538 1.254 2.5877 1.886 5.4325 1.846 8.3077.051 1.3407-.052 2.6828-.308 4zm-23.077-12.9231c-2 2.2396-3.285 5.0252-3.692 8h21.539c-.061-2.944-1.15-5.7741-3.077-8-.938-.9074-2.046-1.6195-3.261-2.0949-1.215-.4753-2.512-.7046-3.816-.6743-1.404-.0967-2.813.0995-4.138.5762-1.324.4767-2.534 1.2235-3.555 2.193z"/><path d="m192.616 29.2305c3.019 3.8469 4.549 8.6542 4.308 13.5384.298 4.8917-1.238 9.7189-4.308 13.5385-1.627 1.6764-3.596 2.9836-5.773 3.8329-2.176.8494-4.51 1.2212-6.842 1.0902-2.339.1961-4.692-.1455-6.879-.9989-2.187-.8533-4.149-2.1956-5.737-3.9242-1.631-1.8362-2.879-3.9794-3.672-6.3041-.792-2.3247-1.113-4.7842-.943-7.2344-.276-4.9406 1.379-9.795 4.615-13.5384 1.588-1.7286 3.55-3.0709 5.737-3.9242 2.187-.8534 4.54-1.195 6.879-.9989 2.332-.131 4.666.2408 6.842 1.0902 2.177.8493 4.146 2.1565 5.773 3.8329zm-21.231 3.6923c-2.228 2.7781-3.326 6.2939-3.077 9.8461-.314 3.5595.792 7.0988 3.077 9.8462 1.065 1.2249 2.393 2.1933 3.885 2.8326 1.492.6394 3.109.9333 4.731.8597 1.573.0492 3.137-.2572 4.575-.8965 1.439-.6393 2.715-1.595 3.732-2.7958 2.285-2.7474 3.391-6.2867 3.077-9.8462.25-3.5522-.849-7.068-3.077-9.8461-1.017-1.2008-2.293-2.1565-3.732-2.7958-1.438-.6393-3.002-.9457-4.575-.8965-1.622-.0736-3.239.2203-4.731.8597-1.492.6393-2.82 1.6077-3.885 2.8326z"/></g><path d="m5.8457 17.5373v49.2308l32 11.6923v-49.8461l34.7692-12.9231-31.6923-11.07694z" fill="#00e599"/><path d="m40.3076 30.4606v26.4615l32.3077 11.6923v-50.1538z" fill="#00af92"/></svg>

<svg width="200" height="80" viewBox="0 0 200 80" fill="none" xmlns="http://www.w3.org/2000/svg">
<path d="M110.154 27.6933C111.521 28.9916 112.587 30.5732 113.278 32.3273C113.969 34.0813 114.268 35.9654 114.154 37.8472V60.6164H108.308V39.6933C108.59 36.8531 107.824 34.0077 106.154 31.6933C105.295 30.8738 104.281 30.2339 103.171 29.8112C102.062 29.3885 100.879 29.1915 99.6925 29.2318C97.8701 29.1648 96.0632 29.59 94.4618 30.4625C92.6827 31.3706 91.1912 32.7555 90.1541 34.4625C89.1071 36.6729 88.5808 39.0939 88.6156 41.5395V60.6164H83.0771V26.1548L88.3079 28.3087V30.4625C89.3748 28.4078 91.1118 26.7794 93.231 25.8472C95.4543 24.8388 97.8666 24.3144 100.308 24.3087C103.892 24.2043 107.392 25.4073 110.154 27.6933Z" fill="white"/>
<path d="M154.462 44.9225H127.693C127.723 46.4837 128.065 48.0231 128.699 49.4499C129.333 50.8768 130.246 52.1621 131.385 53.2302C132.426 54.2789 133.677 55.0952 135.056 55.6256C136.435 56.1559 137.91 56.3882 139.385 56.3071C141.592 56.2563 143.776 55.8404 145.847 55.0764C147.445 54.2252 148.657 52.7936 149.232 51.0764L154.155 53.5379C152.69 55.9174 150.688 57.9198 148.308 59.384C145.535 60.7353 142.467 61.37 139.385 61.2302C137.053 61.3612 134.719 60.9894 132.542 60.14C130.366 59.2907 128.397 57.9835 126.77 56.3071C125.139 54.4709 123.89 52.3278 123.098 50.003C122.305 47.6783 121.985 45.2189 122.155 42.7687C121.914 37.8844 123.443 33.0772 126.462 29.2302C128.064 27.5197 130.029 26.1897 132.212 25.3378C134.395 24.4859 136.741 24.1337 139.078 24.3071C142.001 24.1679 144.898 24.9189 147.385 26.461C149.829 27.8836 151.766 30.0355 152.924 32.6148C154.178 35.2025 154.81 38.0473 154.77 40.9225C154.821 42.2632 154.718 43.6053 154.462 44.9225ZM131.385 31.9994C129.385 34.239 128.1 37.0246 127.693 39.9994H149.232C149.171 37.0554 148.082 34.2253 146.155 31.9994C145.217 31.092 144.109 30.3799 142.894 29.9045C141.679 29.4292 140.382 29.1999 139.078 29.2302C137.674 29.1335 136.265 29.3297 134.94 29.8064C133.616 30.2831 132.406 31.0299 131.385 31.9994Z" fill="white"/>
<path d="M192.616 29.2305C195.635 33.0774 197.165 37.8847 196.924 42.7689C197.222 47.6606 195.686 52.4878 192.616 56.3074C190.989 57.9838 189.02 59.291 186.843 60.1403C184.667 60.9897 182.333 61.3615 180.001 61.2305C177.662 61.4266 175.309 61.085 173.122 60.2316C170.935 59.3783 168.973 58.036 167.385 56.3074C165.754 54.4712 164.506 52.328 163.713 50.0033C162.921 47.6786 162.6 45.2191 162.77 42.7689C162.494 37.8283 164.149 32.9739 167.385 29.2305C168.973 27.5019 170.935 26.1596 173.122 25.3063C175.309 24.4529 177.662 24.1113 180.001 24.3074C182.333 24.1764 184.667 24.5482 186.843 25.3976C189.02 26.2469 190.989 27.5541 192.616 29.2305ZM171.385 32.9228C169.157 35.7009 168.059 39.2167 168.308 42.7689C167.994 46.3284 169.1 49.8677 171.385 52.6151C172.45 53.84 173.778 54.8084 175.27 55.4477C176.762 56.0871 178.379 56.381 180.001 56.3074C181.574 56.3566 183.138 56.0502 184.576 55.4109C186.015 54.7716 187.291 53.8159 188.308 52.6151C190.593 49.8677 191.699 46.3284 191.385 42.7689C191.635 39.2167 190.536 35.7009 188.308 32.9228C187.291 31.722 186.015 30.7663 184.576 30.127C183.138 29.4877 181.574 29.1813 180.001 29.2305C178.379 29.1569 176.762 29.4508 175.27 30.0902C173.778 30.7295 172.45 31.6979 171.385 32.9228Z" fill="white"/>
<path d="M5.8457 17.5373V66.7681L37.8457 78.4604V28.6143L72.6149 15.6912L40.9226 4.61426L5.8457 17.5373Z" fill="#00E599"/>
<path d="M40.3076 30.4606V56.9221L72.6153 68.6144V18.4606L40.3076 30.4606Z" fill="#00AF92"/>
</svg>
